packages/nodes-base/nodes/Transform/Sort/sort.svg

<svg xmlns="http://www.w3.org/2000/svg" width="512" height="512" fill="none"><path fill="#8287EB" fill-rule="evenodd" d="M130.5 422.5c-6.627 0-12-5.373-12-12v-351c0-6.627 5.373-12 12-12h24c6.627 0 12 5.373 12 12v351c0 6.627-5.373 12-12 12z" clip-rule="evenodd"/><path fill="#8287EB" fill-rule="evenodd" d="M36.077 333.482c9.398-9.346 24.594-9.304 33.94.095l72.483 72.887 72.482-72.887c9.347-9.399 24.543-9.441 33.941-.095s9.441 24.543.095 33.941l-89.5 90a24 24 0 0 1-34.036 0l-89.5-90c-9.346-9.398-9.304-24.594.095-33.941M381.5 89.5c6.627 0 12 5.373 12 12v351c0 6.627-5.373 12-12 12h-24c-6.627 0-12-5.373-12-12v-351c0-6.627 5.373-12 12-12z" clip-rule="evenodd"/><path fill="#8287EB" fill-rule="evenodd" d="M475.923 178.518c-9.398 9.346-24.594 9.304-33.941-.095L369.5 105.536l-72.482 72.887c-9.347 9.399-24.543 9.441-33.941.095s-9.441-24.543-.095-33.941l89.5-90a24 24 0 0 1 34.036 0l89.5 90c9.346 9.398 9.304 24.594-.095 33.941" clip-rule="evenodd"/></svg>

<svg width="512" height="512" viewBox="0 0 512 512" fill="none" xmlns="http://www.w3.org/2000/svg">
<path fill-rule="evenodd" clip-rule="evenodd" d="M130.5 422.5C123.873 422.5 118.5 417.127 118.5 410.5L118.5 59.5C118.5 52.8726 123.873 47.5 130.5 47.5L154.5 47.5C161.127 47.5 166.5 52.8726 166.5 59.5L166.5 410.5C166.5 417.127 161.127 422.5 154.5 422.5L130.5 422.5Z" fill="#8287EB"/>
<path fill-rule="evenodd" clip-rule="evenodd" d="M36.0768 333.482C45.4754 324.136 60.6713 324.178 70.0178 333.577L142.5 406.464L214.982 333.577C224.329 324.178 239.525 324.136 248.923 333.482C258.322 342.829 258.364 358.025 249.018 367.423L159.518 457.423C155.013 461.953 148.888 464.5 142.5 464.5C136.112 464.5 129.987 461.953 125.482 457.423L35.9822 367.423C26.6358 358.025 26.6781 342.829 36.0768 333.482Z" fill="#8287EB"/>
<path fill-rule="evenodd" clip-rule="evenodd" d="M381.5 89.5C388.127 89.5 393.5 94.8726 393.5 101.5L393.5 452.5C393.5 459.127 388.127 464.5 381.5 464.5L357.5 464.5C350.873 464.5 345.5 459.127 345.5 452.5L345.5 101.5C345.5 94.8726 350.873 89.5 357.5 89.5L381.5 89.5Z" fill="#8287EB"/>
<path fill-rule="evenodd" clip-rule="evenodd" d="M475.923 178.518C466.525 187.864 451.329 187.822 441.982 178.423L369.5 105.536L297.018 178.423C287.671 187.822 272.475 187.864 263.077 178.518C253.678 169.171 253.636 153.975 262.982 144.577L352.482 54.5768C356.987 50.0469 363.112 47.5 369.5 47.5C375.888 47.5 382.013 50.0469 386.518 54.5768L476.018 144.577C485.364 153.975 485.322 169.171 475.923 178.518Z" fill="#8287EB"/>
</svg>
